Heaven Studio/Tengoku Studio (天国スタジオ) Logo (Wordmark).svg

<?xml version="1.0" encoding="UTF-8" standalone="no"?>
<!-- Created with Inkscape (http://www.inkscape.org/) -->

<svg
   version="1.1"
   id="svg2"
   width="666.66669"
   height="462.73868"
   viewBox="0 0 666.66669 462.73868"
   sodipodi:docname="Tengoku Studio (天国スタジオ) Logo (Wordmark).svg"
   inkscape:version="1.2.2 (b0a8486541, 2022-12-01)"
   xmlns:inkscape="http://www.inkscape.org/namespaces/inkscape"
   xmlns:sodipodi="http://sodipodi.sourceforge.net/DTD/sodipodi-0.dtd"
   xmlns="http://www.w3.org/2000/svg"
   xmlns:svg="http://www.w3.org/2000/svg">
  <defs
     id="defs6">
    <clipPath
       clipPathUnits="userSpaceOnUse"
       id="clipPath16">
      <path
         d="M 0,347.054 H 500 V 0 H 0 Z"
         id="path14" />
    </clipPath>
  </defs>
  <sodipodi:namedview
     id="namedview4"
     pagecolor="#ffffff"
     bordercolor="#000000"
     borderopacity="0.25"
     inkscape:showpageshadow="2"
     inkscape:pageopacity="0.0"
     inkscape:pagecheckerboard="0"
     inkscape:deskcolor="#d1d1d1"
     showgrid="false"
     inkscape:zoom="2.1329999"
     inkscape:cx="327.94188"
     inkscape:cy="231.59869"
     inkscape:window-width="2560"
     inkscape:window-height="1400"
     inkscape:window-x="2560"
     inkscape:window-y="0"
     inkscape:window-maximized="1"
     inkscape:current-layer="g8" />
  <g
     id="g8"
     inkscape:groupmode="layer"
     inkscape:label="Tengoku Studio (天国スタジオ) Logo (Wordmark)"
     transform="matrix(1.3333333,0,0,-1.3333333,0,462.73867)">
    <g
       id="g10">
      <g
         id="g12"
         clip-path="url(#clipPath16)">
        <g
           id="g18"
           transform="translate(462.479,205.3927)">
          <path
             d="m 0,0 c 0,-57.18 -70.251,-116.031 -97.113,-128.153 v 23.175 c 47.461,31.459 72.725,78.168 77.249,101.394 v 3.31 L 0,3.949 Z"
             style="fill:#000000;fill-opacity:1;fill-rule:nonzero;stroke:none"
             id="path20" />
        </g>
        <g
           id="g22"
           transform="translate(476.8615,100.9388)">
          <path
             d="M 0,0 -23.175,-4.926 V 129.708 L 0,134.634 Z"
             style="fill:#000000;fill-opacity:1;fill-rule:nonzero;stroke:none"
             id="path24" />
        </g>
        <g
           id="g26"
           transform="translate(500,218.4202)">
          <path
             d="m 0,0 v -23.175 l -134.634,-28.617 v 23.175 z"
             style="fill:#000000;fill-opacity:1;fill-rule:nonzero;stroke:none"
             id="path28" />
        </g>
        <g
           id="g30"
           transform="translate(355.4337,101.614)">
          <path
             d="M 0,0 -23.175,-10.444 V 81.152 L 0,86.078 Z"
             style="fill:#000000;fill-opacity:1;fill-rule:nonzero;stroke:none"
             id="path32" />
        </g>
        <g
           id="g34"
           transform="translate(247.2848,52.1408)">
          <path
             d="M 0,0 81.663,17.358 108.149,49.473 0,26.485 Z"
             style="fill:#000000;fill-opacity:1;fill-rule:nonzero;stroke:none"
             id="path36" />
        </g>
        <g
           id="g38"
           transform="translate(343.2945,187.3185)">
          <path
             d="M 0,0 -11.036,-2.346 V 17.518 L 0,19.864 Z"
             style="fill:#000000;fill-opacity:1;fill-rule:nonzero;stroke:none"
             id="path40" />
        </g>
        <g
           id="g42"
           transform="translate(355.4337,189.8987)">
          <path
             d="M 0,0 -11.036,-2.346 V 17.518 L 0,19.864 Z"
             style="fill:#000000;fill-opacity:1;fill-rule:nonzero;stroke:none"
             id="path44" />
        </g>
        <g
           id="g46"
           transform="translate(317.9851,161.4873)">
          <path
             d="m 0,0 -11.587,-22.533 -52.564,19.175 11.587,22.533 z"
             style="fill:#000000;fill-opacity:1;fill-rule:nonzero;stroke:none"
             id="path48" />
        </g>
        <g
           id="g50"
           transform="translate(302.5353,131.4434)">
          <path
             d="m 0,0 -11.587,-22.533 -52.564,19.175 11.587,22.533 z"
             style="fill:#000000;fill-opacity:1;fill-rule:nonzero;stroke:none"
             id="path52" />
        </g>
        <g
           id="g54"
           transform="translate(211.8984,135.1111)">
          <path
             d="m 0,0 -57.394,-12.2 10.644,28.748 39.025,8.295 z"
             style="fill:#000000;fill-opacity:1;fill-rule:nonzero;stroke:none"
             id="path56" />
        </g>
        <g
           id="g58"
           transform="translate(187.7506,129.9783)">
          <path
             d="M 0,0 -38.755,-8.238 -31.058,19.884 0,26.485 Z"
             style="fill:#000000;fill-opacity:1;fill-rule:nonzero;stroke:none"
             id="path60" />
        </g>
        <g
           id="g62"
           transform="translate(184.7155,62.619)">
          <path
             d="M 0,0 -40.161,31.624 -22.213,53.387 17.948,21.763 Z"
             style="fill:#000000;fill-opacity:1;fill-rule:nonzero;stroke:none"
             id="path64" />
        </g>
        <g
           id="g66"
           transform="translate(228.4518,133.1118)">
          <path
             d="m 0,0 c 0,-44.45 -25.55,-90.405 -77.998,-101.553 l -16.908,-3.594 v 26.485 l 24.278,5.161 c 9.234,1.963 46.35,12.785 46.35,73.858 V 26.843 L 0,7.725 Z"
             style="fill:#000000;fill-opacity:1;fill-rule:nonzero;stroke:none"
             id="path68" />
        </g>
        <g
           id="g70"
           transform="translate(144.3053,164.8861)">
          <path
             d="M 0,0 C -2.206,-23.853 -13.148,-39.751 -25.934,-47.448 V -73.933 C 7.523,-59.983 23.817,-26.175 26.485,5.63 Z"
             style="fill:#000000;fill-opacity:1;fill-rule:nonzero;stroke:none"
             id="path72" />
        </g>
        <g
           id="g74"
           transform="translate(81.6635,125.507)">
          <path
             d="m 0,0 -72.835,-15.482 v 26.486 l 65.11,13.839 z"
             style="fill:#000000;fill-opacity:1;fill-rule:nonzero;stroke:none"
             id="path76" />
        </g>
        <g
           id="g78"
           transform="translate(101.5275,20.7378)">
          <path
             d="M 0,0 -35.106,27.644 -17.158,49.407 17.948,21.763 Z"
             style="fill:#000000;fill-opacity:1;fill-rule:nonzero;stroke:none"
             id="path80" />
        </g>
        <g
           id="g82"
           transform="translate(97.1133,116.6518)">
          <path
             d="m 0,0 c 0,-43.989 -26.918,-101.731 -97.113,-116.652 v 26.486 c 78.408,16.666 73.938,86.12 73.938,97.379 V 33.699 L 0,15.45 Z"
             style="fill:#000000;fill-opacity:1;fill-rule:nonzero;stroke:none"
             id="path84" />
        </g>
        <g
           id="g86"
           transform="translate(338.3665,309.2005)">
          <path
             d="m 0,0 -65.751,-13.976 c -3.534,-0.74 -5.851,-3.578 -6.196,-7.528 l -6.388,-73.019 65.751,13.976 c 3.269,0.676 5.826,3.299 6.196,7.528 z m 27.736,19.602 -9.383,-107.246 -124.408,-26.444 9.382,107.246 z m -45.709,-86.714 -7.264,-1.544 c -4.242,-0.902 -6.181,0.572 -5.947,3.243 l 1.485,16.968 13.612,2.893 0.79,9.031 -13.612,-2.894 1.209,13.821 c 0.384,4.386 2.524,6.749 6.01,7.49 l 8.156,1.733 0.736,8.414 -46.719,-9.931 -0.736,-8.413 7.355,1.563 c 5.141,1.093 6.016,-1.436 5.858,-3.243 l -1.363,-15.577 -13.613,-2.894 -0.79,-9.03 13.613,2.893 -1.331,-15.212 c -0.379,-4.327 -2.552,-6.772 -5.92,-7.489 l -8.248,-1.753 -0.731,-8.357 46.719,9.93 z m -6.074,14.323 7.466,1.587 -0.898,-10.26 -7.466,-1.587 z"
             style="fill:#000000;fill-opacity:1;fill-rule:nonzero;stroke:none"
             id="path88" />
        </g>
        <g
           id="g90"
           transform="translate(323.1287,334.2919)">
          <path
             d="m 0,0 c -0.637,0.232 -1.627,0.597 -1.627,1.171 0.001,0.483 0.442,0.945 1.519,2.025 4.292,4.337 4.776,4.831 7.88,8.341 L 5.42,12.762 C 3.879,10.824 3.285,10.17 -1.161,5.386 -3.45,2.922 -4.552,1.538 -4.553,0.412 -4.554,-1.06 -2.97,-1.689 -1.189,-2.39 2.13,-3.685 5.294,-5.243 8.262,-7.141 l 2.179,2.372 C 8.442,-3.401 3.231,-1.152 0,0"
             style="fill:#000000;fill-opacity:1;fill-rule:nonzero;stroke:none"
             id="path92" />
        </g>
        <g
           id="g94"
           transform="translate(272.8762,331.0024)">
          <path
             d="m 0,0 1.608,-1.316 c 2.591,2.209 4.58,3.612 7.395,4.724 L 9.005,5.696 C 7.576,5.392 0.518,3.869 -1.068,3.532 -2.185,3.294 -4.954,2.706 -5.625,2.586 L -5.628,-0.052 C -4.198,0.345 -2.276,0.8 2.325,1.849 0.872,0.793 0.715,0.665 0,0 m 3.587,-11.377 c -3.351,-0.712 -7.64,-1.576 -7.637,1.459 0,0.49 0.093,2.214 1.969,4.503 l -1.808,1.017 c -1.631,-2.261 -2.616,-3.942 -2.618,-6.089 -0.002,-1.845 1.181,-3.368 2.722,-3.81 1.898,-0.554 3.797,-0.36 8.196,0.575 3.463,0.736 5.025,1.278 5.807,1.561 l -0.087,2.596 c -2.166,-0.787 -4.356,-1.347 -6.544,-1.812 m 6.44,9.703 1.563,1.313 C 11.121,0.543 10.386,1.6 9.494,2.484 L 7.929,1.195 c 0.87,-0.958 1.317,-1.564 2.098,-2.869 M 6.723,0.635 C 7.884,-0.589 8.641,-1.969 8.842,-2.346 L 7.277,-3.658 C 6.273,-1.842 5.56,-1.059 5.203,-0.645 Z"
             style="fill:#000000;fill-opacity:1;fill-rule:nonzero;stroke:none"
             id="path96" />
        </g>
        <g
           id="g98"
           transform="translate(164.5633,221.383)">
          <path
             id="天_1_"
             class="st11"
             d="M 0.05995873,-0.01736038 1.1102717,11.987993 47.5014,21.848752 49.146336,40.651071 2.7552078,30.790312 4.2281635,47.626175 50.619291,57.486939 52.260205,76.24301 -73.04393,49.608656 l -1.640797,-18.755969 45.635311,9.700108 -1.472955,-16.835861 -45.635299,-9.70012 -1.64495,-18.8023305 45.635313,9.7001334 -0.608282,-6.9525337 C -34.723528,-24.303199 -47.502651,-32.261077 -66.202063,-36.248661 l -14.625191,-3.108698 -1.648544,-18.84387 31.85144,6.770257 c 24.463018,5.1885 33.601622,12.897717 45.0166842,34.611236 5.00114055,-2.512883 18.2651918,-13.023903 23.4011588,-20.068594 l 32.942318,7.002259 C 42.062678,-18.45399 9.0528489,-2.6102968 0.05995873,-0.01736038 Z"
             style="fill:#000000;stroke-width:1.29328"
             inkscape:label="path100" />
        </g>
        <g
           id="g102"
           transform="translate(184.219,306.6252)">
          <path
             d="m 0,0 c -0.475,-5.196 -1.629,-7.387 -3.403,-7.764 -1.883,-0.401 -1.88,1.709 -1.879,2.38 l 0.002,0.996 c 0.003,1.669 -0.079,5.241 -3.646,4.483 -1.507,-0.32 -2.372,-1.153 -2.86,-1.627 0.379,1.331 2.427,7.811 2.874,9.296 l -2.791,-0.061 c -0.982,-3.497 -4.102,-14.652 -5.84,-20.488 l 2.546,-0.222 c 0.156,0.658 1.272,5.319 1.317,5.444 0.468,1.397 1.736,4.491 4.241,5.024 1.661,0.353 1.659,-1.153 1.656,-2.635 l -10e-4,-0.788 c -0.001,-0.51 0.063,-1.886 0.37,-2.677 0.487,-1.263 1.903,-2.121 3.72,-1.735 4.076,0.866 5.412,4.555 6.02,10.151 z"
             style="fill:#000000;fill-opacity:1;fill-rule:nonzero;stroke:none"
             id="path104" />
        </g>
        <g
           id="g106"
           transform="translate(127.1724,300.7338)">
          <path
             d="m 0,0 c 1.016,0.734 2.334,1.557 4.278,1.97 0.928,0.197 1.426,0.258 1.88,0.31 L 6.118,4.822 C 3.893,4.259 -6.022,1.745 -7.88,1.26 -9.369,0.875 -10.991,0.44 -12.481,0.124 l 0.082,-2.556 c 3.349,1.005 6.697,1.987 10.067,2.907 -4.823,-4.096 -5.973,-7.863 -5.977,-10.188 -0.003,-2.101 1.266,-3.975 3.208,-4.601 1.964,-0.644 4.274,-0.718 8.919,0.248 l 0.35,2.76 c -6.222,-1.525 -9.999,-1.109 -9.993,2.324 C -5.82,-5.934 -3.07,-2.256 0,0"
             style="fill:#000000;fill-opacity:1;fill-rule:nonzero;stroke:none"
             id="path108" />
        </g>
      </g>
    </g>
  </g>
</svg>

<?xml version="1.0" encoding="UTF-8" standalone="no"?>
<!-- Created with Inkscape (http://www.inkscape.org/) -->

<svg
   version="1.1"
   id="svg2"
   width="666.66669"
   height="462.73868"
   viewBox="0 0 666.66669 462.73868"
   sodipodi:docname="Tengoku Studio (天国スタジオ) Logo (Wordmark).ai"
   xmlns:inkscape="http://www.inkscape.org/namespaces/inkscape"
   xmlns:sodipodi="http://sodipodi.sourceforge.net/DTD/sodipodi-0.dtd"
   xmlns="http://www.w3.org/2000/svg"
   xmlns:svg="http://www.w3.org/2000/svg">
  <defs
     id="defs6">
    <clipPath
       clipPathUnits="userSpaceOnUse"
       id="clipPath16">
      <path
         d="M 0,347.054 H 500 V 0 H 0 Z"
         id="path14" />
    </clipPath>
  </defs>
  <sodipodi:namedview
     id="namedview4"
     pagecolor="#ffffff"
     bordercolor="#000000"
     borderopacity="0.25"
     inkscape:showpageshadow="2"
     inkscape:pageopacity="0.0"
     inkscape:pagecheckerboard="0"
     inkscape:deskcolor="#d1d1d1" />
  <g
     id="g8"
     inkscape:groupmode="layer"
     inkscape:label="Tengoku Studio (天国スタジオ) Logo (Wordmark)"
     transform="matrix(1.3333333,0,0,-1.3333333,0,462.73867)">
    <g
       id="g10">
      <g
         id="g12"
         clip-path="url(#clipPath16)">
        <g
           id="g18"
           transform="translate(462.479,205.3927)">
          <path
             d="m 0,0 c 0,-57.18 -70.251,-116.031 -97.113,-128.153 v 23.175 c 47.461,31.459 72.725,78.168 77.249,101.394 v 3.31 L 0,3.949 Z"
             style="fill:#000000;fill-opacity:1;fill-rule:nonzero;stroke:none"
             id="path20" />
        </g>
        <g
           id="g22"
           transform="translate(476.8615,100.9388)">
          <path
             d="M 0,0 -23.175,-4.926 V 129.708 L 0,134.634 Z"
             style="fill:#000000;fill-opacity:1;fill-rule:nonzero;stroke:none"
             id="path24" />
        </g>
        <g
           id="g26"
           transform="translate(500,218.4202)">
          <path
             d="m 0,0 v -23.175 l -134.634,-28.617 v 23.175 z"
             style="fill:#000000;fill-opacity:1;fill-rule:nonzero;stroke:none"
             id="path28" />
        </g>
        <g
           id="g30"
           transform="translate(355.4337,101.614)">
          <path
             d="M 0,0 -23.175,-10.444 V 81.152 L 0,86.078 Z"
             style="fill:#000000;fill-opacity:1;fill-rule:nonzero;stroke:none"
             id="path32" />
        </g>
        <g
           id="g34"
           transform="translate(247.2848,52.1408)">
          <path
             d="M 0,0 81.663,17.358 108.149,49.473 0,26.485 Z"
             style="fill:#000000;fill-opacity:1;fill-rule:nonzero;stroke:none"
             id="path36" />
        </g>
        <g
           id="g38"
           transform="translate(343.2945,187.3185)">
          <path
             d="M 0,0 -11.036,-2.346 V 17.518 L 0,19.864 Z"
             style="fill:#000000;fill-opacity:1;fill-rule:nonzero;stroke:none"
             id="path40" />
        </g>
        <g
           id="g42"
           transform="translate(355.4337,189.8987)">
          <path
             d="M 0,0 -11.036,-2.346 V 17.518 L 0,19.864 Z"
             style="fill:#000000;fill-opacity:1;fill-rule:nonzero;stroke:none"
             id="path44" />
        </g>
        <g
           id="g46"
           transform="translate(317.9851,161.4873)">
          <path
             d="m 0,0 -11.587,-22.533 -52.564,19.175 11.587,22.533 z"
             style="fill:#000000;fill-opacity:1;fill-rule:nonzero;stroke:none"
             id="path48" />
        </g>
        <g
           id="g50"
           transform="translate(302.5353,131.4434)">
          <path
             d="m 0,0 -11.587,-22.533 -52.564,19.175 11.587,22.533 z"
             style="fill:#000000;fill-opacity:1;fill-rule:nonzero;stroke:none"
             id="path52" />
        </g>
        <g
           id="g54"
           transform="translate(211.8984,135.1111)">
          <path
             d="m 0,0 -57.394,-12.2 10.644,28.748 39.025,8.295 z"
             style="fill:#000000;fill-opacity:1;fill-rule:nonzero;stroke:none"
             id="path56" />
        </g>
        <g
           id="g58"
           transform="translate(187.7506,129.9783)">
          <path
             d="M 0,0 -38.755,-8.238 -31.058,19.884 0,26.485 Z"
             style="fill:#000000;fill-opacity:1;fill-rule:nonzero;stroke:none"
             id="path60" />
        </g>
        <g
           id="g62"
           transform="translate(184.7155,62.619)">
          <path
             d="M 0,0 -40.161,31.624 -22.213,53.387 17.948,21.763 Z"
             style="fill:#000000;fill-opacity:1;fill-rule:nonzero;stroke:none"
             id="path64" />
        </g>
        <g
           id="g66"
           transform="translate(228.4518,133.1118)">
          <path
             d="m 0,0 c 0,-44.45 -25.55,-90.405 -77.998,-101.553 l -16.908,-3.594 v 26.485 l 24.278,5.161 c 9.234,1.963 46.35,12.785 46.35,73.858 V 26.843 L 0,7.725 Z"
             style="fill:#000000;fill-opacity:1;fill-rule:nonzero;stroke:none"
             id="path68" />
        </g>
        <g
           id="g70"
           transform="translate(144.3053,164.8861)">
          <path
             d="M 0,0 C -2.206,-23.853 -13.148,-39.751 -25.934,-47.448 V -73.933 C 7.523,-59.983 23.817,-26.175 26.485,5.63 Z"
             style="fill:#000000;fill-opacity:1;fill-rule:nonzero;stroke:none"
             id="path72" />
        </g>
        <g
           id="g74"
           transform="translate(81.6635,125.507)">
          <path
             d="m 0,0 -72.835,-15.482 v 26.486 l 65.11,13.839 z"
             style="fill:#000000;fill-opacity:1;fill-rule:nonzero;stroke:none"
             id="path76" />
        </g>
        <g
           id="g78"
           transform="translate(101.5275,20.7378)">
          <path
             d="M 0,0 -35.106,27.644 -17.158,49.407 17.948,21.763 Z"
             style="fill:#000000;fill-opacity:1;fill-rule:nonzero;stroke:none"
             id="path80" />
        </g>
        <g
           id="g82"
           transform="translate(97.1133,116.6518)">
          <path
             d="m 0,0 c 0,-43.989 -26.918,-101.731 -97.113,-116.652 v 26.486 c 78.408,16.666 73.938,86.12 73.938,97.379 V 33.699 L 0,15.45 Z"
             style="fill:#000000;fill-opacity:1;fill-rule:nonzero;stroke:none"
             id="path84" />
        </g>
        <g
           id="g86"
           transform="translate(338.3665,309.2005)">
          <path
             d="m 0,0 -65.751,-13.976 c -3.534,-0.74 -5.851,-3.578 -6.196,-7.528 l -6.388,-73.019 65.751,13.976 c 3.269,0.676 5.826,3.299 6.196,7.528 z m 27.736,19.602 -9.383,-107.246 -124.408,-26.444 9.382,107.246 z m -45.709,-86.714 -7.264,-1.544 c -4.242,-0.902 -6.181,0.572 -5.947,3.243 l 1.485,16.968 13.612,2.893 0.79,9.031 -13.612,-2.894 1.209,13.821 c 0.384,4.386 2.524,6.749 6.01,7.49 l 8.156,1.733 0.736,8.414 -46.719,-9.931 -0.736,-8.413 7.355,1.563 c 5.141,1.093 6.016,-1.436 5.858,-3.243 l -1.363,-15.577 -13.613,-2.894 -0.79,-9.03 13.613,2.893 -1.331,-15.212 c -0.379,-4.327 -2.552,-6.772 -5.92,-7.489 l -8.248,-1.753 -0.731,-8.357 46.719,9.93 z m -6.074,14.323 7.466,1.587 -0.898,-10.26 -7.466,-1.587 z"
             style="fill:#000000;fill-opacity:1;fill-rule:nonzero;stroke:none"
             id="path88" />
        </g>
        <g
           id="g90"
           transform="translate(323.1287,334.2919)">
          <path
             d="m 0,0 c -0.637,0.232 -1.627,0.597 -1.627,1.171 0.001,0.483 0.442,0.945 1.519,2.025 4.292,4.337 4.776,4.831 7.88,8.341 L 5.42,12.762 C 3.879,10.824 3.285,10.17 -1.161,5.386 -3.45,2.922 -4.552,1.538 -4.553,0.412 -4.554,-1.06 -2.97,-1.689 -1.189,-2.39 2.13,-3.685 5.294,-5.243 8.262,-7.141 l 2.179,2.372 C 8.442,-3.401 3.231,-1.152 0,0"
             style="fill:#000000;fill-opacity:1;fill-rule:nonzero;stroke:none"
             id="path92" />
        </g>
        <g
           id="g94"
           transform="translate(272.8762,331.0024)">
          <path
             d="m 0,0 1.608,-1.316 c 2.591,2.209 4.58,3.612 7.395,4.724 L 9.005,5.696 C 7.576,5.392 0.518,3.869 -1.068,3.532 -2.185,3.294 -4.954,2.706 -5.625,2.586 L -5.628,-0.052 C -4.198,0.345 -2.276,0.8 2.325,1.849 0.872,0.793 0.715,0.665 0,0 m 3.587,-11.377 c -3.351,-0.712 -7.64,-1.576 -7.637,1.459 0,0.49 0.093,2.214 1.969,4.503 l -1.808,1.017 c -1.631,-2.261 -2.616,-3.942 -2.618,-6.089 -0.002,-1.845 1.181,-3.368 2.722,-3.81 1.898,-0.554 3.797,-0.36 8.196,0.575 3.463,0.736 5.025,1.278 5.807,1.561 l -0.087,2.596 c -2.166,-0.787 -4.356,-1.347 -6.544,-1.812 m 6.44,9.703 1.563,1.313 C 11.121,0.543 10.386,1.6 9.494,2.484 L 7.929,1.195 c 0.87,-0.958 1.317,-1.564 2.098,-2.869 M 6.723,0.635 C 7.884,-0.589 8.641,-1.969 8.842,-2.346 L 7.277,-3.658 C 6.273,-1.842 5.56,-1.059 5.203,-0.645 Z"
             style="fill:#000000;fill-opacity:1;fill-rule:nonzero;stroke:none"
             id="path96" />
        </g>
        <g
           id="g98"
           transform="translate(164.5633,221.383)">
          <path
             d="m 0,0 c 0.671,4.811 1.11,11.988 1.11,11.988 l 46.391,9.861 1.645,18.802 -46.391,-9.861 1.473,16.836 46.391,9.861 1.641,18.756 -125.304,-26.634 -1.641,-18.756 45.636,9.7 -1.473,-16.836 -45.635,-9.7 -1.645,-18.802 45.635,9.7 -0.609,-6.953 c -1.948,-22.265 -14.727,-30.223 -33.426,-34.211 l -14.625,-3.108 -1.649,-18.844 31.852,6.77 c 24.463,5.188 33.601,12.898 45.016,34.611 5.001,-2.513 18.265,-13.024 23.401,-20.068 l 32.942,7.002 C 42.062,-18.454 8.993,-2.593 0,0"
             style="fill:#000000;fill-opacity:1;fill-rule:nonzero;stroke:none"
             id="path100" />
        </g>
        <g
           id="g102"
           transform="translate(184.219,306.6252)">
          <path
             d="m 0,0 c -0.475,-5.196 -1.629,-7.387 -3.403,-7.764 -1.883,-0.401 -1.88,1.709 -1.879,2.38 l 0.002,0.996 c 0.003,1.669 -0.079,5.241 -3.646,4.483 -1.507,-0.32 -2.372,-1.153 -2.86,-1.627 0.379,1.331 2.427,7.811 2.874,9.296 l -2.791,-0.061 c -0.982,-3.497 -4.102,-14.652 -5.84,-20.488 l 2.546,-0.222 c 0.156,0.658 1.272,5.319 1.317,5.444 0.468,1.397 1.736,4.491 4.241,5.024 1.661,0.353 1.659,-1.153 1.656,-2.635 l -10e-4,-0.788 c -0.001,-0.51 0.063,-1.886 0.37,-2.677 0.487,-1.263 1.903,-2.121 3.72,-1.735 4.076,0.866 5.412,4.555 6.02,10.151 z"
             style="fill:#000000;fill-opacity:1;fill-rule:nonzero;stroke:none"
             id="path104" />
        </g>
        <g
           id="g106"
           transform="translate(127.1724,300.7338)">
          <path
             d="m 0,0 c 1.016,0.734 2.334,1.557 4.278,1.97 0.928,0.197 1.426,0.258 1.88,0.31 L 6.118,4.822 C 3.893,4.259 -6.022,1.745 -7.88,1.26 -9.369,0.875 -10.991,0.44 -12.481,0.124 l 0.082,-2.556 c 3.349,1.005 6.697,1.987 10.067,2.907 -4.823,-4.096 -5.973,-7.863 -5.977,-10.188 -0.003,-2.101 1.266,-3.975 3.208,-4.601 1.964,-0.644 4.274,-0.718 8.919,0.248 l 0.35,2.76 c -6.222,-1.525 -9.999,-1.109 -9.993,2.324 C -5.82,-5.934 -3.07,-2.256 0,0"
             style="fill:#000000;fill-opacity:1;fill-rule:nonzero;stroke:none"
             id="path108" />
        </g>
      </g>
    </g>
  </g>
</svg>
